icons/unocss.svg

<!--
  - The MIT License (MIT)
  -
  - Copyright (c) 2015-2024 Elior "Mallowigi" Boukhobza
  -
  - Permission is hereby granted, free of charge, to any person obtaining a copy
  - of this software and associated documentation files (the "Software"), to deal
  - in the Software without restriction, including without limitation the rights
  - to use, copy, modify, merge, publish, distribute, sublicense, and/or sell
  - copies of the Software, and to permit persons to whom the Software is
  - furnished to do so, subject to the following conditions:
  -
  - The above copyright notice and this permission notice shall be included in all
  - copies or substantial portions of the Software.
  -
  - THE SOFTWARE IS PROVIDED "AS IS", WITHOUT WARRANTY OF ANY KIND, EXPRESS OR
  - IMPLIED, INCLUDING BUT NOT LIMITED TO THE WARRANTIES OF MERCHANTABILITY,
  - FITNESS FOR A PARTICULAR PURPOSE AND NONINFRINGEMENT. IN NO EVENT SHALL THE
  - AUTHORS OR COPYRIGHT HOLDERS BE LIABLE FOR ANY CLAIM, DAMAGES OR OTHER
  - LIABILITY, WHETHER IN AN ACTION OF CONTRACT, TORT OR OTHERWISE, ARISING FROM,
  - OUT OF OR IN CONNECTION WITH THE SOFTWARE OR THE USE OR OTHER DEALINGS IN THE
  - SOFTWARE.
  -
  -->


<svg  width="16px" height="16px" viewBox="0 0 220 220" xmlns="http://www.w3.org/2000/svg"
>
  <g fill="#888" data-iconColor="UnoCSS">
    <path
        d="M117.722 167.444C117.722 139.83 140.108 117.444 167.722 117.444V117.444C195.336 117.444 217.722 139.83 217.722 167.444V167.444C217.722 195.058 195.336 217.444 167.722 217.444V217.444C140.108 217.444 117.722 195.058 117.722 167.444V167.444Z"
    />
    <path
        d="M117.722 52.5561C117.722 24.9419 140.108 2.55614 167.722 2.55614V2.55614C195.336 2.55614 217.722 24.9419 217.722 52.5561V97.5561C217.722 100.318 215.483 102.556 212.722 102.556H122.722C119.961 102.556 117.722 100.318 117.722 97.5561V52.5561Z"
    />
    <path
        d="M102.278 167.444C102.278 195.058 79.8922 217.444 52.278 217.444V217.444C24.6637 217.444 2.27796 195.058 2.27796 167.444L2.27796 122.444C2.27796 119.682 4.51654 117.444 7.27796 117.444L97.278 117.444C100.039 117.444 102.278 119.682 102.278 122.444L102.278 167.444Z"
    />
  </g>
</svg>

<svg xmlns="http://www.w3.org/2000/svg" viewBox="0 0 220 220"><path fill="#888" d="M117.722 167.444c0-27.614 22.386-50 50-50s50 22.386 50 50-22.386 50-50 50-50-22.386-50-50m0-114.888c0-27.614 22.386-50 50-50s50 22.386 50 50v45a5 5 0 0 1-5 5h-90a5 5 0 0 1-5-5zm-15.444 114.888c0 27.614-22.386 50-50 50s-50-22.386-50-50v-45a5 5 0 0 1 5-5h90a5 5 0 0 1 5 5z" data-iconColor="UnoCSS"/></svg>
